assets/Firecracker/Flat/firecracker_flat.svg

<svg width="32" height="32" viewBox="0 0 32 32" fill="none" xmlns="http://www.w3.org/2000/svg">
<path fill-rule="evenodd" clip-rule="evenodd" d="M22.4389 4.74258C22.6342 4.54731 22.9508 4.54731 23.146 4.74258C25.3013 6.89784 25.3013 10.3744 23.146 12.5297L22.006 13.6697C21.8108 13.8649 21.4942 13.8649 21.2989 13.6697C21.1036 13.4744 21.1037 13.1578 21.2989 12.9626L22.4389 11.8226C24.2037 10.0578 24.2037 7.21442 22.4389 5.44968C22.2437 5.25442 22.2437 4.93784 22.4389 4.74258Z" fill="#212121"/>
<path d="M24.3937 14.6984L20.3108 10.6155C19.5024 9.80712 18.1926 9.80712 17.3842 10.6155L5.60629 22.3935C4.7979 23.2018 4.7979 24.5116 5.60629 25.32L9.68917 29.4029C10.4976 30.2113 11.8074 30.2113 12.6158 29.4029L24.3937 17.625C25.2021 16.8166 25.2021 15.5068 24.3937 14.6984Z" fill="#F8312F"/>
<path d="M27.6338 5.95614L27.6038 5.94614C27.5038 5.90614 27.3838 5.89614 27.2738 5.91614L27.2338 5.92614C27.1538 5.93614 27.0838 5.93614 27.0038 5.92614C26.9038 5.91614 26.8338 5.83614 26.8338 5.73614C26.8338 5.63614 26.9038 5.54613 27.0138 5.53613C27.0938 5.52613 27.1638 5.52613 27.2438 5.54613C27.3738 5.56613 27.5038 5.54614 27.6238 5.49614C27.9038 5.36614 28.0238 5.02614 27.8938 4.74614L27.4338 3.73614C27.3038 3.45614 26.9738 3.32614 26.6938 3.45614L26.6638 3.46613C26.5638 3.51613 26.4738 3.58614 26.4038 3.67614L26.3738 3.71613C26.3238 3.77613 26.2738 3.83614 26.2138 3.87614C26.1338 3.93614 26.0338 3.93613 25.9538 3.86613C25.8738 3.79613 25.8738 3.67614 25.9338 3.59614C25.9838 3.53614 26.0338 3.48614 26.0938 3.44614C26.2038 3.36614 26.2838 3.26613 26.3238 3.14613C26.4338 2.85613 26.2838 2.53614 25.9938 2.42614L24.9438 2.03613C24.6538 1.92613 24.3338 2.07613 24.2238 2.36613L24.2138 2.39613C24.1738 2.49613 24.1638 2.61613 24.1838 2.72613L24.1938 2.76614C24.2038 2.84614 24.2038 2.91614 24.1938 2.99614C24.1838 3.09614 24.1038 3.16614 24.0038 3.16614C23.9038 3.16614 23.8138 3.09614 23.8038 2.98614C23.7938 2.90614 23.7938 2.83613 23.8138 2.75613C23.8338 2.62613 23.8138 2.49614 23.7638 2.37614C23.6338 2.09614 23.3038 1.96614 23.0238 2.09614L22.0038 2.55614C21.7238 2.68614 21.5938 3.01613 21.7238 3.29613L21.7338 3.32613C21.7838 3.42613 21.8538 3.51613 21.9438 3.58613L21.9838 3.61613C22.0438 3.66613 22.1038 3.71614 22.1438 3.77614C22.2038 3.85614 22.2038 3.95613 22.1338 4.03613C22.0638 4.11613 21.9438 4.11614 21.8638 4.05614C21.8038 4.00614 21.7538 3.95614 21.7038 3.88614C21.6238 3.77614 21.5238 3.69613 21.4038 3.65613C21.1138 3.54613 20.7938 3.69614 20.6838 3.98614L20.2938 5.03613C20.1838 5.32613 20.3338 5.64613 20.6238 5.75613L20.6538 5.76614C20.7538 5.80614 20.8738 5.81613 20.9838 5.79613L21.0238 5.78613C21.1038 5.77613 21.1738 5.77613 21.2538 5.78613C21.3538 5.79613 21.4238 5.87613 21.4238 5.97613C21.4238 6.07613 21.3538 6.16614 21.2438 6.17614C21.1638 6.18614 21.0938 6.18614 21.0138 6.16614C20.8838 6.14614 20.7538 6.16613 20.6338 6.21613C20.3538 6.34613 20.2238 6.67614 20.3538 6.95614L20.8138 7.97613C20.9438 8.25613 21.2738 8.38613 21.5538 8.25613L21.5838 8.24614C21.6838 8.19614 21.7738 8.12613 21.8438 8.03613L21.8738 7.99614C21.9238 7.93614 21.9738 7.87613 22.0338 7.83613C22.1138 7.77613 22.2138 7.77614 22.2938 7.84614C22.3738 7.91614 22.3738 8.03613 22.3138 8.11613C22.2638 8.17613 22.2138 8.22614 22.1538 8.26614C22.0438 8.34614 21.9638 8.44614 21.9238 8.56614C21.8138 8.85614 21.9638 9.17613 22.2538 9.28613L23.3038 9.67614C23.5938 9.78614 23.9138 9.63614 24.0238 9.34614L24.0338 9.31614C24.0738 9.21614 24.0838 9.09614 24.0638 8.98614L24.0538 8.94614C24.0438 8.86614 24.0438 8.79613 24.0538 8.71613C24.0638 8.61613 24.1438 8.54613 24.2438 8.54613C24.3438 8.54613 24.4338 8.61613 24.4438 8.72613C24.4538 8.80613 24.4538 8.87614 24.4338 8.95614C24.4138 9.08614 24.4338 9.21614 24.4838 9.33613C24.6138 9.61614 24.9438 9.74613 25.2238 9.61613L26.2438 9.15613C26.5238 9.02613 26.6538 8.69614 26.5238 8.41614L26.5138 8.38614C26.4638 8.28614 26.3938 8.19614 26.3038 8.12614L26.2638 8.09614C26.2038 8.04614 26.1438 7.99613 26.1038 7.93613C26.0438 7.85613 26.0438 7.75614 26.1138 7.67614C26.1838 7.59614 26.3038 7.59613 26.3838 7.65613C26.4438 7.70613 26.4938 7.75613 26.5438 7.82613C26.6238 7.93613 26.7238 8.01614 26.8538 8.05614C27.1438 8.16614 27.4638 8.00613 27.5738 7.71613L27.9638 6.67614C28.0738 6.38614 27.9238 6.06614 27.6338 5.95614Z" fill="#FF822D"/>
</svg>

<svg xmlns="http://www.w3.org/2000/svg" width="32" height="32" fill="none"><path fill="#212121" fill-rule="evenodd" d="M22.439 4.743a.5.5 0 0 1 .707 0 5.497 5.497 0 0 1 0 7.787l-1.14 1.14a.5.5 0 0 1-.707-.707l1.14-1.14a4.497 4.497 0 0 0 0-6.373.5.5 0 0 1 0-.707Z" clip-rule="evenodd"/><path fill="#F8312F" d="m24.394 14.698-4.083-4.082a2.069 2.069 0 0 0-2.927 0L5.606 22.392a2.069 2.069 0 0 0 0 2.927l4.083 4.083a2.069 2.069 0 0 0 2.927 0l11.778-11.778a2.069 2.069 0 0 0 0-2.927Z"/><path fill="#FF822D" d="m27.634 5.956-.03-.01a.615.615 0 0 0-.33-.03l-.04.01c-.08.01-.15.01-.23 0a.186.186 0 0 1-.17-.19c0-.1.07-.19.18-.2.08-.01.15-.01.23.01.13.02.26 0 .38-.05.28-.13.4-.47.27-.75l-.46-1.01a.56.56 0 0 0-.74-.28l-.03.01c-.1.05-.19.12-.26.21l-.03.04c-.05.06-.1.12-.16.16-.08.06-.18.06-.26-.01-.08-.07-.08-.19-.02-.27.05-.06.1-.11.16-.15.11-.08.19-.18.23-.3a.559.559 0 0 0-.33-.72l-1.05-.39a.559.559 0 0 0-.72.33l-.01.03c-.04.1-.05.22-.03.33l.01.04c.01.08.01.15 0 .23-.01.1-.09.17-.19.17s-.19-.07-.2-.18a.595.595 0 0 1 .01-.23c.02-.13 0-.26-.05-.38-.13-.28-.46-.41-.74-.28l-1.02.46c-.28.13-.41.46-.28.74l.01.03c.05.1.12.19.21.26l.04.03c.06.05.12.1.16.16.06.08.06.18-.01.26-.07.08-.19.08-.27.02a.869.869 0 0 1-.16-.17.611.611 0 0 0-.3-.23.559.559 0 0 0-.72.33l-.39 1.05c-.11.29.04.61.33.72l.03.01c.1.04.22.05.33.03l.04-.01c.08-.01.15-.01.23 0 .1.01.17.09.17.19s-.07.19-.18.2c-.08.01-.15.01-.23-.01-.13-.02-.26 0-.38.05a.56.56 0 0 0-.28.74l.46 1.02c.13.28.46.41.74.28l.03-.01c.1-.05.19-.12.26-.21l.03-.04c.05-.06.1-.12.16-.16.08-.06.18-.06.26.01.08.07.08.19.02.27-.05.06-.1.11-.16.15-.11.08-.19.18-.23.3-.11.29.04.61.33.72l1.05.39c.29.11.61-.04.72-.33l.01-.03c.04-.1.05-.22.03-.33l-.01-.04a.885.885 0 0 1 0-.23c.01-.1.09-.17.19-.17s.19.07.2.18c.01.08.01.15-.01.23-.02.13 0 .26.05.38.13.28.46.41.74.28l1.02-.46a.56.56 0 0 0 .28-.74l-.01-.03a.755.755 0 0 0-.21-.26l-.04-.03a.808.808 0 0 1-.16-.16.198.198 0 0 1 .01-.26c.07-.08.19-.08.27-.02.06.05.11.1.16.17.08.11.18.19.31.23.29.11.61-.05.72-.34l.39-1.04a.559.559 0 0 0-.33-.72Z"/></svg>
